X: 1133
T: THE MISTLETOE BOUGH
B: Oliver Ditson "The Boston Collection of Instrumental Music" 1910 p.113 #3
F: http://conquest.imslp.info/files/imglnks/usimg/8/8f/IMSLP175643-PMLP309456-bostoncollection00bost_bw.pdf
%: 2012 John Chambers <jc:trillian.mit.edu>
M: 6/8
L: 1/8
K: D
A |\
AAA AAA | A2A A2A | BAB cBc | edd d2A |\
AAA AAA | A2A A2A | BAB cBc | edd d2 ]
A |\
dcd ede | f2d d2F | GFG A2A | d2d d2A |\
dcd ede | f2d d2F | GFG A2A | d2d d2 :|
%%begintext align
Forward two and cross over.
Chassez, and cross over to place.
All promenade.
%%endtext

%%sep 1 1 500
%%sep 1 1 500
